!!!OTL: Muede kehrt ein Wandersmann zurueck nach der Heimat seiner Liebe Glueck
!!!ARE: Europa, Mitteleuropa, Deutschland, Unter - Franken, Bamberg Ebern,
!!    Muersbach
!!!SCT: D1020
!!!YEM: Copyright 1995, estate of Helmut Schaffrath.
**kern
*ICvox
*Ivox
*M2/4
*k[f#]
*G:
{8d
8g
=1
4.b
8a
=2
8g
8f#
8g
16g
16f#
=3
4d
4r
=4
4r}
{8d
8f#
=5
4.a
8g
=6
8f#
8a
8cc
8b
=7
4g
4r
=8
4r}
{8g
8a
=9
4.b
8dd
=10
4dd
8cc
8b
=11
4a
4r
=12
8r}
{8a
8cc
8a
=13
4.g
8g
=14
8b
8a
8d
8f#
=15
4g
4r
=16
4r}
==
!!!AGN: Liebes - Lied
!! Takt in 2/4 korrigiert, in der 3. und 4. Zeile Pause ergaenzt
!!    DVA-Signatur A 196 840
!!!ONB: ESAC (Essen Associative Code) Database: DVA
!!!AMT: simple duple
!!!AIN: vox
!!!EED: Helmut Schaffrath
!!!EEV: 1.0
*-
